hush

d1
  -- $ slow 2
  $ whenmod 4 3 (|* speed (rangex 0.6 0.9 sine))
  $ chop 32
  $ every 4 (rev . (loopAt 2))
  $ s "break"
  # legato 1
  # gain 1.2

d2
  $ every 4 (|* speed "0.4")
  $ striate' 4 (1/"<2 4>")
  $ chop "<128 32>"
  $ sound "arpy ~ feel*2 newnotes"
  |* speed (rangex 0.2 1.5 isaw)
  # lpf (slow 4 $ range 800 6000 sine)
  # room 0.6 # size 0.3

hush

d3
  $ s ""
