d1 
    $ juxBy 0.2 (slow 2)
    $ whenmod 4 2 (spread ($) [
        gap 2,
        striate 4,
        density 2,
        off 0.75 ((# s "{feelfx blue 909}%2") . (# cut 1) . (# nudge "[0 0.04]*16"))
    ])
    $ degradeBy "<0.6 0.3 0.8>"
    $ stutWith 4 (1/6) (|* speed "<0.2 1.2 -0.8>")
    $ every' 6 2 (slow 4) . (|* vowel "{i o u}%2")
    $ s (samples "lighter" $ run 4)
    # bpf (range 400 6000 $ fast 4 $ sine)


hush