d1 
    $ striate' 4 (1/32)
    $ note "<[3 _ -2 _ 8 10 _] [3 8_ 5 10 _]>" # s "sax"
    # legato 1.75
    # bpf (range 1000 4000 $ density 8 $ tri)

d3 
    $ note "[3 0 [5 8 -2]]" # s "bass"
    >| nudge "[0 0.25]*5"
    # lpf (range 200 2000 $ fast 4 $ isaw)
    # room 0.2 # size 0.3
    -- # legato 1
    -- # silence

d4 
    $ stack [
        s "reverbkick(5,8)",
        s "cp",
        s "[[hh*8 hh*4 _ hh(3,8)] hh(7,9)]"
    ]

setcps(130/60/8)    

hush