d1 
  $ every 2 ((1/3) ~>)
  $ sound "bd ~ cp"
  # pan sine
  # gain (slow 4 $ range 0.5 1 saw)
  # nudge "[0 0.25]*4"

setcps(120/60/4) 

let scene = pS "scene" -- send OSC message out: scene

d1 
  $ s "bd hh [cp bd] hh"
  # scene "blue red"

setcps(120/60/4)


hush 