-- Ply

d1
    $ plyWith "<4 3>" (slow 2 . (|- speed 1.34))
    $ loopAt 4
    $ chop "<32 8 16>"
    $ n "0 5 [~ 7] 12"
    # s "sax"
    # lpf (range 100 2000 $ fast 4 $ isaw)
    # cut 1
    -- # silence

d2
    $ degradeBy 0.2
    $ jux rev
    $ stut "<4 3 8>" 0.2 (slow 8 $ (1/8) * sine)
    $ n "0 [3 5] 4 2"
    # s "feel"

d3
    $ degradeBy 0.1
    $ stutWith 4 (1/128) (|- speed 0.2)
    $ s "reverbkick(5,8)"



setcps(130/60/4)


hush
