d1 $ sound "hh*16" # gain (euclidFull 3 8 "1 0.7" 0.7)

d1 $ (|+| gain "[[0.5 0 0 0] [0 0 0.5 0] [0] [0.5 0 0 0]]") $ sound "hh*16" # gain 0.5

d1 $ sound "hh*16" # gain "[[1 0.5 0.5 0.5] [0.5 0.5 1 0.5] [0.5] [1 0.5 0.5 0.5]]"

hush

d2 $ slow 4 $ sound "wobble" |+| speed "0.5"
