setcps(10/60/4)

d1 $ n "0 2 4 7" # s "midi"

hush

d1 $ n "0 2 4 7" # s "crave" # midichan 0

p "midiclock" $ midicmd "midiClock*48" # s "crave"

once $ midicmd "stop" # s "crave"

p "midictl" $ silence


d1
  -- $ struct (iter 2 "<t*6 t*9 t*3>")
  $ slow 8
  $ every 2 (|- n "[5 12]")
  $ off 0.33 (|+| 8)
  $ n (arp "<updown pinkyupdown>" "'minor7 [0,5,12,8]")
  # s "superpiano"
  -- # midichan 0


d2
  $ s "kk*2"




hush
