-- OSC connection test

setcps(160/60/4)

d1
  $ n "0*4"
  # s "bd"
  # td_s "0 1 2 3"


d2
  $ n "0*16"
  # s "hh"
  # td_s "4"


d3
  $ n "<1(5,8) 2(5,8,2)>"
  # s "clubkick:2"
  # gain 1.2
  # room 0.5 # size 0.9
  # orbit 0
  -- # td_s "<0(5,8) 1(5,8) 0 1>"

hush
