d1 
   $ every 4 (rev)
   $ slow 2
   $ iter 2
   $ n "{4*8 5*2 4/4 6*2, 7*2 9*2 2/2} [2 3, 0(3,8)]"
   # s "{feel jungbass industrial}"
   # vowel "{a o p o} [p ~ i p u]"
   # pan "<0 0.5 1>"
   # delay 0.3 # delaytime "<0.25 0.75 1.25>" # delayfeedback 0.4
   # hcutoff (range 200 1000 $ slow 4 sine)
   # room (range 0.1 0.3 tri)
   # shape "{0.1 0.8 0.2}%4"
   # speed "<1 2 0.5 1.5>"
   # resonance (range 0.75 0.2 $ density 2 $ sine)
   --  # silence

   hush