-- Hello, everyone. This is SOMEHOAX on board from Taipei, Taiwan
-- I hope you all enjoy it. Peace & Luv
-- Thank you!!!!!!

hush

HELLOHELLOHELLOHELLOHELLOHELLOHELLOHELLOHELLOHELLOHELLOHELLOHELLOHELLOHELLOHELLOHELLOHELLOHELLOHELLOHELLOHELLOHELLOHELLOHELLOHELLOHELLOHELLOHELLOHELLOHELLOHELLOHELLOHELLOHELLOHELLOHELLOHELLOHELLOHELLOHELLOHELLOHELLOHELLOHELLOHELLOHELLOHELLOHELLOHELLOHELLOHELLOHELLOHELLOHELLOHELLOHELLOHELLOHELLOHELLOHELLOHELLOHELLOHELLOHELLOHELLOHELLOHELLOHELLOHELLOHELLOHELLOHELLOHELLOHELLOHELLOHELLOHELLOHELLOHELLOHELLOHELLOHELLOHELLOHELLOHELLOHELLOHELLOHELLOHELLOHELLOHELLOHELLOHELLOHELLOHELLOHELLOHELLOHELLOHELLOHELLOHELLOHELLOHELLOHELLOHELLOHELLOHELLOHELLOHELLOHELLOHELLOHELLOHELLOHELLOHELLOHELLOHELLOHELLOHELLOHELLOHELLOHELLOHELLOHELLOHELLOHELLOHELLOHELLOHELLOHELLOHELLOHELLOHELLOHELLOHELLOHELLOHELLOHELLOHELLOHELLOHELLOHELLOHELLOHELLOHELLOHELLOHELLOHELLOHELLOHELLOHELLOHELLOHELLOHELLOHELLOHELLOHELLOHELLOHELLOHELLOHELLOHELLOHELLOHELLOHELLOHELLOHELLOHELLOHELLOHELLOHELLOHELLOHELLOHELLOHELLOHELLOHELLOHELLOHELLOHELLOHELLOHELLOHELLOHELLOHELLO

hush

d1
    -- $ qtrigger 1
    $ slow 2
    $ every 4 (rev . (|* speed "[1.2|1.5]"))
    -- $ ghost
    -- $ sometimesBy 0.5 (slice 8 "<0 .. 6>")
    $ chop "2"
    $ s "atmoshot"
    # legato 2
    |* speed "<1.25 1 1.5 1.67>"
    # lpf (range 1000 800 sine)
    # room 0.3 # size (rangex 0.5 0.8 sine)
    # resonance (slow (3/4) $ range "0.75" 1 sine*0.75)
    # pan (slow 2 $ sine)
    # orbit 3

d2
    -- $ qtrigger 1
    $ chop "<8 16>"
    $ every 4 (jux' [
        id,
        iter 2
    ])
    $ chunk 4 (hurry 2)
    $ s "zap:4"
    # resonance (range 1 0.6 $ slow 4 $ cosine*1.8)
    |* accelerate 0.8
    # legato 2

d3
    $ gtfo
    $ qtrigger 1
    $ jux rev
    $ striate' 32 (1/4)
    $ foldEvery [3,4,5] (slow 4)
    $ slow 4
    $ slice 16 "<[0 .. 8][32 .. 0]>"
    $ s "sanson"
    # room 0.4 # size 0.4
    # legato 6
    # cut 1
    # orbit 2

hush

d4
    -- $ gtfo
    $ qtrigger 1
    $ foldEvery [6,9,12] (slowspread ($) [
        id,
        (|* speed "<0.8, 1.2, -1.5>"),
        hurry (1/3)
    ])
    $ every 4 (0.75 ~>)
    $ off 0.05 (const $ s "{kk:2(<3 5>,8), ~cp}")
    $ stutWith 4 (1/6) (|* gain 0.6)
    $ n (irand 4)
    # s "rims:3"
    # crush 0.3
    # shape (range 2 1 sine)


d5
    -- $ gtfo
    $ chunk 4 (hurry (1/3))
    $ jux' [
        id,
        -- iter 4,
        degradeBy 0.5,
        (|* speed (range 0.3 0.5 isaw))
    ]
    $ every 4 (slice 16 "<0 5 2>")
    $ off 0.25 (const $ one $ s "gabba:2(3,8,<2 4>)" |* speed "<0.8 1.2>")
    $ note "<0 2 5>"
    # s "clp"
    # room 0.3
    # orbit 2
    # cut 1



d7
    $ gtfo
    $ off 0.25 (const $ foldEvery [2, 6] (crushit . rev) $ s "toon:5(2,5)" # legato 1.2)
    $ s "cb"
    # gain 2
    # release 0.8
    # cut 1


d8
    -- $ sometimesBy 0.25 (# delay 0.8)
    -- $ off 0.25 (const $ s "bd*2")
    $ s "gv"
    # orbit 2
    # cut 1

setcps(0.75)


hush
