p "test"
    -- $ while "[f t]/8" (# crush 4)
    -- $ off 0.25 (|* speed "1.5")
    -- $ (0.25 ~>)
    $ s "[[bd(<3 5>,8) cp(2,16)] , [hh*8]]"
    -- # speed (trigger 1 $ range 1 0 $ slow 10 $ sine)
    -- # begin 0.04
    -- # end 0.8
    -- -- # pan 0.2
    -- # pan (trigger 1 $ range 0.1 0.9 $ slow 10 $ isaw)
    -- -- # gain 0.7
    -- # vowel "<[a e] i>"
    # cps 0.2

    -- speed as color brightness
    -- cycle as grid division
    -- pan as position
    -- usec as length


hush