d1 
    $ loopAt 1
    $ chop 2
    $ bite 8 "0 .. 7"
    $ spread ($) [
        fast 2,
        (0.25 ~>)
    ]
    $ every 2 (slow 4)
    $ chunk 4 (hurry 2)
    $ n ("3 4 [1|<2 5>] 5 [4 1]")
    # s (choose ["gab", "future", "east"])
    # lpf (range 400 4000 sine)
    -- # silence


d2
    $ jux rev
    $ striate' 8 (1/32)
    $ stack [
        -- sound "clubkick(<3 5>,<8 16>)",
        s "hh*16"
    ]
    # room (range 0.4 0.6 sine) # size 0.2

hush