d1 
    $ slow (3/4)
    $ every 4 ((rev) . (density 2))
    $ loopAt "[1 2]"
    -- $ chop 4
    -- $ stutWith 0.25 (|*| speed "0.2")
    $ n "1 [5 2] [5 2]"
    # s "midi"
    # room 0.3
    # unit "c"
    # nudge "[0 0.25]/4"

d2 
    $ stack [
        s "reverbkick(5,8)",
        s "~ cp"
    ]

hush