d2
    $ s "hdkick:1(2,8)"

setcps(160/60/4)

hush


d3
  $ fast 1
  $ jux rev
  $ rarely (off 0.5 (|+ 7))
  $ off 0.25 (|+ 7)
  $ struct (iter 4 "t(5,8)")
  $  n ( scale "minor" $ run 8)
  # s "arpy"
  # cutoff "460 600 2000"
  -- # gain 1.2
  -- # room 0.5

d3
  $ s "clap(5,16)"
