do
  asap $ connectionMax 4 # speedSequenser 4
  d5 $ grid "1 0!7"
  d1 $ s "bd(3,8)" # connectionN 1 # color "ffffff"
  d2 $ s "hh(6,8)" # connectionN 2 # color "ffffff"
  d3 $ every 3 ( density 8 ) $ density 2 $ n "<[d4,e2,g2] [d4,e4,g2]?>"
     # s "superfork"  # connectionN 3 # color "ffffff"
  d4 $ s "yeah" # connectionN 4 # color "ffffff"

hush
