d3
  -- $ slow 2
  -- $ qt
  -- $ degradeBy (0.3)
  $ chop "6"
  $ loopAt "6"
  $ slice 8 "5 6!3 2!2 7 4"
  -- $ every 2 ((1/2) ~>)
  $ n "1"
  # s "bbbyvcl"
  -- # legato 2
  -- |* speed "-1 2"
  -- # ofx 1.0
  # vowel "a _ e i"
