d2
    $ slowspread ($) [
        jux (0.25 <~) . brak . (0.25 ~>) . trunc 0.25,
        fast 2,
        jux (iter 8) . ((|+| cutoff ((*0.04) . (+0.01) <$> slow 0.25 tri)) . (|-| resonance "0.8")),
        slow 4,
        jux (trunc 0.25),
        density "<0.75 0.5 -0.25>",
        (|+| speed "0.8 0.7") . trunc 0.25
    ] 
    $ loopAt 1
    $ chop 4
    $ striate' 32 (1/128) (sound "vcv:1")
    |+| speed "[1 1.2 1.75 -3]/2"
    # bpf (range 200 4000 $ slow 4 $ square)




hush