setcps(160/60/4)

xen n p = toScale (map (\x -> x / n * 12) [0..(n-1)]) p

d4
  $ (# rate (rand*2))
    $ rolledBy (rand*0.2)
    $ superimpose ((degrade) . (arp "pinkyupdown") . (|+ note 36) . (# release 0.4))
    $ jux (|- note 0.018)
    $ note (xen 5 "<[-3,0,2,4] [-4,1,3,4] [-5,-2,3,5] [-5,-2,3,6]>/2")
    |+ note "[0,0.02,-0.01]" |- note 12
    # "supersaw" # legato 1.05 |* gain 0.5
    # voice 0 # lfo 1 # lpf 9000
    # room 0.9 # size 0.9

hush
