hush


d2
  $ qt
  -- $ gtfo
  $ every 4 (rolledBy "0.7 0.5 0.3 0.2 0.1")
  $ struct (iter 2 "t(5,8)")
  $ slow 2
  -- $ every 6 ( jux rev )
  -- $ crushit
  $ density 2
  $ note (scale "chromatic" "<a4'm9'8 e4'7sus4'8 g4'm9'8 d4'm9'8>")
  -- $ note (scale "phrygian" $ runmod 8 "<5 8 2>/6" "0@5g <0 1>")
  # s "rhodes"
  # room 0.1
  -- # gain 1.2
  # attack 0.3
  # legato 1
