-- Using SuperDirt Synth

dtune = pF "dtune"
vibrate = pF "vibrate"
vibdepth = pF "vibdepth"

d1
  $ gtfo
    $ n "c@4 g@2 eb2@8"
    # s "cs80lead"
    # room 0.2 # sz 0.3
    # gain (range 0.8 0.2 sine)


hush
